X: 131702
T: Murneen
S: B.Breathnach:"Ceol Rince na hEireann" IV/89 (gan ainm) 
Z: B.Black
L: 1/8
M: 2/4
N: N.B. No repeats
Q: 280
R: polka
K: Amix
e/f/e/d/ ce|ea ce|dd/c/ Bc|df Bf|
e/f/e/d/ ce|ea ce|d>c BA|a2 a2 ||
Ac ec|ac ec|Ac ec|ac B2|
Ac ec|ac ec|e/f/e/d/ e/f/e/d/|cA A2 ||
